X:90
T: Tim's Kerry Pony
M: 2/4
L: 1/8
R: polka
S: Tim Radford / Jan Elliott
Z: B.Black
H: English traditional (morris dance)
K: D
FA AB/2c/2 | dc BA | FA AB/2c/2 | dF E2 |
FA AB/2c/2 | dc BA | Be Be | Bc d2 :|
fd fd | e>c BA | fd fd | Be e2 |
fd fd | e>c BA | Be Be | Bc d2 :|
